X: 24
T:Planxty Maguire
M:2/4
L:1/8
Q:110
C:Turlough O'Carolan
K:G
d |:c/B/A/G/ dG |B/c/d de/f/ |gf/e/ ag/f/ |
gA Ad |c/B/A/G/ Bd |c'b ag |f/g/f/e/ de/f/ |1
gG Gd :|2gG Ge ||d/B/d/e/ dB |d/B/d/e/ dB |
cA AB |cA Ad |B/c/d Gd |Fd Ee |
f/g/a ea |g/f/e/f/ d2 |ef ga |bg ga/b/ |
c'a ad' |c'/b/a/b/ g2 |d/e/d/c/ Bd |ge ce |
fg/a/ de/f/ |gG G2 ||
%  ABC2Win Version 2.1 24/06/2002
